src/svgs/landing-icon.svg

<svg width="608" height="700" viewBox="0 0 608 700" fill="none" xmlns="http://www.w3.org/2000/svg">
<path d="M495.511 92.9572C558.613 119.447 605.244 192.019 607.35 263.553C609.33 335.212 566.778 405.685 521.593 466.414C476.541 527.009 428.865 577.727 370.234 600.005C311.486 622.267 241.673 616.083 191.616 584.988C141.692 554.01 111.658 498.028 78.3228 442.698C44.9958 387.509 8.64339 332.839 1.39805 267.631C-5.98087 202.557 15.8887 126.685 66.0796 97.963C116.27 69.2409 194.641 87.6922 273.68 87.0321C352.718 86.372 432.283 66.6163 495.511 92.9572Z" fill="#00ACD4"/>
<path d="M162.462 280.729C162.973 291.031 162.462 681.273 162.462 681.273H189.691L231.34 424.818C231.866 416.504 239.457 324.586 239.457 324.586L191.522 275.346L162.462 280.729Z" fill="#B45E00"/>
<path d="M272.509 277.948C272.509 277.948 303.706 477.549 303.706 485.674C303.706 493.799 252.627 677.935 252.627 677.935H226.42L248.714 465.635L172.276 286.042" fill="#FF8600"/>
<path d="M142.682 202.438C141.26 204.505 132.309 225.385 132.985 233.604C134.022 246.178 142.651 253.132 157.409 260.763C161.652 260.763 166.178 211.751 166.178 211.751L152.906 202.438H142.682Z" fill="#DE8E68"/>
<path d="M172.277 147.908C152.403 163.263 135.547 193.486 138.824 199.05C140.395 201.651 148.584 206.287 157.935 210.499" fill="#22385B"/>
<path d="M253.436 66.0632C259.218 42.3988 248.792 19.5224 230.149 14.9674C211.505 10.4123 191.705 25.9035 185.923 49.5679C180.141 73.2323 190.567 96.1086 209.21 100.664C227.854 105.219 247.654 89.7275 253.436 66.0632Z" fill="#DE8E68"/>
<path d="M217.485 109.787C261.688 109.787 279.746 268.289 272.493 277.954C262.599 291.141 191.812 301.757 162.477 280.736C151.193 272.681 149.479 109.787 217.485 109.787Z" fill="#2B4570"/>
<path d="M162.462 681.274V700.001H226.42V689.423L189.691 681.274" fill="black"/>
<path d="M226.42 677.934V700H293.404V691.418L252.659 677.934" fill="black"/>
<path d="M280.179 192.302C281.421 193.622 292.163 209.299 293.664 212.647C296.658 210.093 392.804 129.483 394.383 128.39C395.963 127.298 398.698 127.392 399.766 128.115C400.633 128.682 401.261 129.548 401.532 130.547C401.803 131.546 401.697 132.61 401.236 133.537C400.387 135.109 388.435 145.623 388.435 145.623C389.409 146.841 394.399 159.493 388.01 165.434C383.665 169.481 378.738 170.825 373.999 168.318C370.856 171.721 295.715 254.759 282.607 254.759C276.541 254.759 255.732 233.408 246.349 217.322" fill="#DE8E68"/>
<path d="M213.745 156.923C213.745 182.855 234.177 219.003 241.249 219.003C248.322 219.003 283.684 193.071 283.684 186.784C283.684 180.498 256.18 134.134 232.605 134.134C223.175 134.134 213.745 144.35 213.745 156.923Z" fill="#22385B"/>
<path d="M211.387 53.1997C224.935 53.3018 249.531 26.7251 249.531 25.6957C249.531 23.3382 245.351 10.8828 221.092 10.8828C203.765 10.8828 176.504 23.016 176.504 62.8653C176.504 83.3833 168.481 105.3 168.481 115.201C168.481 130.25 180.606 139.735 199.757 139.735C209.006 139.735 222.915 135.177 222.915 127.696C222.915 116.757 234.137 81.2144 212.7 73.474" fill="black"/>
<path d="M215.143 72.3911C213.859 73.2256 212.361 73.673 210.829 73.6798C205.933 73.6798 201.965 69.0906 201.965 63.4248C201.965 57.7589 205.933 53.209 210.829 53.209C211.745 53.2082 212.655 53.3678 213.517 53.6805" fill="#DE8E68"/>
<path d="M573.913 0H418.312V115.03H573.913V0Z" fill="#2B4570"/>
<path d="M496.109 280.399C532.695 280.399 562.354 250.74 562.354 214.154C562.354 177.567 532.695 147.908 496.109 147.908C459.522 147.908 429.863 177.567 429.863 214.154C429.863 250.74 459.522 280.399 496.109 280.399Z" fill="#2B4570"/>
</svg>

<svg width="608" height="700" fill="none" xmlns="http://www.w3.org/2000/svg"><path d="M495.511 92.957c63.102 26.49 109.733 99.062 111.839 170.596 1.98 71.659-40.572 142.132-85.757 202.861-45.052 60.595-92.728 111.313-151.359 133.591-58.748 22.262-128.561 16.078-178.618-15.017-49.924-30.978-79.958-86.96-113.293-142.29-33.327-55.189-69.68-109.859-76.925-175.067-7.379-65.074 14.49-140.946 64.682-169.668 50.19-28.722 128.561-10.27 207.6-10.93 79.038-.661 158.603-20.417 221.831 5.924Z" fill="#00ACD4"/><path d="M162.462 280.729c.511 10.302 0 400.544 0 400.544h27.229l41.649-256.455c.526-8.314 8.117-100.232 8.117-100.232l-47.935-49.24-29.06 5.383Z" fill="#B45E00"/><path d="M272.509 277.948s31.197 199.601 31.197 207.726-51.079 192.261-51.079 192.261H226.42l22.294-212.3-76.438-179.593" fill="#FF8600"/><path d="M142.682 202.438c-1.422 2.067-10.373 22.947-9.697 31.166 1.037 12.574 9.666 19.528 24.424 27.159 4.243 0 8.769-49.012 8.769-49.012l-13.272-9.313h-10.224Z" fill="#DE8E68"/><path d="M172.277 147.908c-19.874 15.355-36.73 45.578-33.453 51.142 1.571 2.601 9.76 7.237 19.111 11.449" fill="#22385B"/><path d="M253.436 66.063c5.782-23.664-4.644-46.54-23.287-51.096-18.644-4.555-38.444 10.937-44.226 34.6-5.782 23.665 4.644 46.542 23.287 51.097 18.644 4.555 38.444-10.936 44.226-34.6Z" fill="#DE8E68"/><path d="M217.485 109.787c44.203 0 62.261 158.502 55.008 168.167-9.894 13.187-80.681 23.803-110.016 2.782-11.284-8.055-12.998-170.949 55.008-170.949Z" fill="#2B4570"/><path d="M162.462 681.274v18.727h63.958v-10.578l-36.729-8.149M226.42 677.934V700h66.984v-8.582l-40.745-13.484" fill="#000"/><path d="M280.179 192.302c1.242 1.32 11.984 16.997 13.485 20.345 2.994-2.554 99.14-83.164 100.719-84.257 1.58-1.092 4.315-.998 5.383-.275a4.229 4.229 0 0 1 1.47 5.422c-.849 1.572-12.801 12.086-12.801 12.086.974 1.218 5.964 13.87-.425 19.811-4.345 4.047-9.272 5.391-14.011 2.884-3.143 3.403-78.284 86.441-91.392 86.441-6.066 0-26.875-21.351-36.258-37.437" fill="#DE8E68"/><path d="M213.745 156.923c0 25.932 20.432 62.08 27.504 62.08 7.073 0 42.435-25.932 42.435-32.219 0-6.286-27.504-52.65-51.079-52.65-9.43 0-18.86 10.216-18.86 22.789Z" fill="#22385B"/><path d="M211.387 53.2c13.548.102 38.144-26.475 38.144-27.504 0-2.358-4.18-14.813-28.439-14.813-17.327 0-44.588 12.133-44.588 51.982 0 20.518-8.023 42.435-8.023 52.336 0 15.049 12.125 24.534 31.276 24.534 9.249 0 23.158-4.558 23.158-12.039 0-10.939 11.222-46.482-10.215-54.222" fill="#000"/><path d="M215.143 72.391a7.982 7.982 0 0 1-4.314 1.289c-4.896 0-8.864-4.59-8.864-10.255 0-5.666 3.968-10.216 8.864-10.216.916 0 1.826.159 2.688.471" fill="#DE8E68"/><path d="M573.913 0H418.312v115.03h155.601V0ZM496.109 280.399c36.586 0 66.245-29.659 66.245-66.245 0-36.587-29.659-66.246-66.245-66.246-36.587 0-66.246 29.659-66.246 66.246 0 36.586 29.659 66.245 66.246 66.245Z" fill="#2B4570"/></svg>
